X: 32672
T: Poison The Well
R: reel
M: 4/4
K: Adorian
|:A2GE DE GE|A2GA cc AG|cd ec d2 dc|dg ec dc BG|
A2 GE DE GE|A2 GA cc AG|cd ec dc BG|1 A2GBA2(3EFG:|2 A2GBA2(3ABc||
|:d2 cd Ad dd|cE Ac ed cG|A2 GA EA AA|GE GA cd ec|
d2 cd Ad dd|cA cd ed (3efg|a2 ga ed cA|1 AG (3ABc d2 (3ABc:|2 AG (3ABc d4||

